X: 2
T: The Daisy Field
R: reel
M: 4/4
L: 1/8
K: Dmaj
~F2 FE DEFD | EA,A,A, EA, A,/A,/A, | F2 FE DEFA | B/c/d ec dBAG |
~F3 E DEFD | EA,A,A, EA ~A2 | F2 FE DEFA | cdec d3 e ||
fd ~d2 dfaf | edcd efge | fddc dfaf | gfeg fd d/d/d |
fddc df ~a2 | edcd efge | dfaf ~g2 ag | faeg fd d2 |]
